archdroid-icon-theme/Archdroid-Brown/devices/scalable/drive-harddisk.svg

<svg fill="#795548" height="48" viewBox="0 0 48 48" width="48" xmlns="http://www.w3.org/2000/svg"><path d="m4 40h40v-8h-40zm4-6h4v4h-4zm-4-26v8h40v-8zm8 6h-4v-4h4zm-8 14h40v-8h-40zm4-6h4v4h-4z" fill="#795548"/></svg>

<svg fill="#795548" height="48" viewBox="0 0 48 48" width="48" xmlns="http://www.w3.org/2000/svg"><path d="M4 40h40v-8H4v8zm4-6h4v4H8v-4zM4 8v8h40V8H4zm8 6H8v-4h4v4zM4 28h40v-8H4v8zm4-6h4v4H8v-4z"/></svg>
